!!!!SEGMENT: Crp1002e-Missa_A_lombre_dung_buissonet-Agnus
!!!id: Crp1002e
!!!AGN: Mass; Agnus
!!!voices: 5
!!!OPR: Missa A lombre dung buissonet
!!!COM: Carpentras
!!!OTL: Agnus
**kern	**kern	**kern	**kern	**kern
*part5	*part4	*part3	*part2	*part1
*staff5	*staff4	*staff3	*staff2	*staff1
*I"Bassus	*I"Tenor	*I"Altus	*I"Superius II	*I"Superius I
*I'B.	*I'T.	*I'A.	*I'S. II	*I'S. I
*clefGv2	*clefG2	*clefG2	*clefG2	*clefG2
*k[]	*k[]	*k[]	*k[]	*k[]
*M2/1	*M2/1	*M2/1	*M2/1	*M2/1
*met(C|)	*met(C|)	*met(C|)	*met(C|)	*met(C|)
=1	=1	=1	=1	=1
!!section: Agnus Dei I
!!!OMD: Agnus Dei I
0r	0r	1g	0r	1dd
.	.	2f	.	1dd
.	.	2d	.	.
=2	=2	=2	=2	=2
0r	1d	2.f	0r	2.a
.	.	4g	.	4b
.	2c	[1a	.	4cc
.	.	.	.	4dd
.	2A	.	.	[2ee
=3	=3	=3	=3	=3
0r	2c	2a]	0r	4ee]
.	.	.	.	4dd
.	2d	4g	.	1dd
.	.	4f	.	.
.	1e	2.g	.	.
.	.	.	.	2cc#i
.	.	4a	.	.
=4	=4	=4	=4	=4
1G	1d	1b	0r	0dd
2F	2r	2.a	.	.
2D	2d	.	.	.
.	.	4g	.	.
=5	=5	=5	=5	=5
2.F	2c	2a	0r	0r
.	2A	1f	.	.
4G	.	.	.	.
[1A	2.c	.	.	.
.	.	4e	.	.
.	4d	4d	.	.
=6	=6	=6	=6	=6
2A]	1.e	1c	0r	0r
4G	.	.	.	.
4F	.	.	.	.
2.G	.	2r	.	.
.	4d	2g	.	.
4A	4c	.	.	.
=7	=7	=7	=7	=7
1B-i	2.d	4f	0r	1.ff
.	.	4e	.	.
.	.	4f	.	.
.	4e	4g	.	.
2A	2f	2a	.	.
2G	[2g	[2b-i	.	2ee
=8	=8	=8	=8	=8
2.B-X	4g]	4b-]	0r	1.dd
.	4f	4a	.	.
.	1f	2f	.	.
4A	.	.	.	.
1G	.	1g	.	.
.	2e	.	.	4cc
.	.	.	.	4b
=9	=9	=9	=9	=9
2.F	1f	2r	0r	2.a
.	.	1a	.	.
4G	.	.	.	4b
2A	2e	.	.	2cc
[2B-i	2d	2f	.	[2dd
=10	=10	=10	=10	=10
4B-]	2.f	1a	0r	2dd]
4A	.	.	.	.
2F	.	.	.	1cc
.	4e	.	.	.
1G	1d	1g	.	.
.	.	.	.	2b
=11	=11	=11	=11	=11
2C	2c	2e	0r	0cc
2F	2A	1f	.	.
2F	2A	.	.	.
2F	2A	4e	.	.
.	.	4d	.	.
=12	=12	=12	=12	=12
2.F	2.A	1c	0r	0r
4G	4B	.	.	.
4A	4c	1r	.	.
4F	4d	.	.	.
2G	[2e	.	.	.
=13	=13	=13	=13	=13
2D	2e]	0r	0r	0r
2F	2d	.	.	.
1E	2d	.	.	.
.	2c#i	.	.	.
=14	=14	=14	=14	=14
0D	0d	2r	0r	2r
.	.	2f	.	2dd
.	.	2f	.	2dd
.	.	2f	.	2dd
=15	=15	=15	=15	=15
0r	0r	4f	0r	2.a
.	.	4e	.	.
.	.	4f	.	.
.	.	4g	.	4b
.	.	4a	.	4cc
.	.	4f	.	4dd
.	.	2g	.	[2ee
=16	=16	=16	=16	=16
0r	1r	2d	0r	2ee]
.	.	2f	.	2dd
.	1g	1e	.	2dd
.	.	.	.	2cc#i
=17	=17	=17	=17	=17
1G	2g	1d	0r	0dd
.	2g	.	.	.
2G	2.d	2r	.	.
2G	.	2g	.	.
.	4e	.	.	.
=18	=18	=18	=18	=18
2.D	4f	1a	0r	2r
.	4e	.	.	.
.	2f	.	.	2dd
4E	.	.	.	.
2F	2d	1a	.	2dd
2D	[2f	.	.	2dd
=19	=19	=19	=19	=19
2.F	2f]	2f	0r	2.a
.	4e	1.a	.	.
4G	4d	.	.	4b
4A	2c	.	.	4cc
4B	.	.	.	4dd
[2c	2A	.	.	[2ee
=20	=20	=20	=20	=20
2c]	2e	2g	0r	4ee]
.	.	.	.	4dd
2d	2f	2b-X	.	1dd
1A	1e	1a	.	.
.	.	.	.	2cc#i
=21	=21	=21	=21	=21
1D	2d	1f	0r	0dd
.	2A	.	.	.
2r	4B	2.g	.	.
.	4A	.	.	.
2G	4B	.	.	.
.	4c	4g	.	.
=22	=22	=22	=22	=22
2G	2d	2g	0r	2r
2G	2B	2d	.	2dd
[1D	2A	2.f	.	2dd
.	2d	.	.	2dd
.	.	4e	.	.
=23	=23	=23	=23	=23
2D]	2d	4f	0r	2.a
.	.	4g	.	.
1F	2d	1a	.	.
.	.	.	.	4b
.	2A	.	.	4cc
.	.	.	.	4dd
4E	[2c	4g	.	[2ee
4D	.	4f	.	.
=24	=24	=24	=24	=24
2A	2c]	2e	0r	4ee]
.	.	.	.	4dd
2F	2d	2a	.	1dd
2G	1e	2g	.	.
2A	.	2e	.	2cc#i
=25	=25	=25	=25	=25
2.B-X	[0dl	2g	0r	[0ddl
.	.	2d	.	.
4A	.	.	.	.
2G	.	1g	.	.
4F	.	.	.	.
4E	.	.	.	.
=26	=26	=26	=26	=26
[0Dl	0d_	1.f	0r	0dd_
.	.	4e	.	.
.	.	4d	.	.
=27	=27	=27	=27	=27
0D]	0d]	0al	0r	0dd]
=28||	=28||	=28||	=28||	=28||
*M2/1	*M2/1	*M2/1	*M2/1	*M2/1
*met(C|)	*met(C|)	*met(C|)	*met(C|)	*met(C|)
!!section: Agnus Dei II
!!!OMD: Agnus Dei II
0r	0r	1r	0r	1.ff
.	.	[1b-X	.	.
.	.	.	.	2ee
=29	=29	=29	=29	=29
0r	0r	2b-]	0r	1.dd
.	.	2a	.	.
.	.	1g	.	.
.	.	.	.	4cc
.	.	.	.	4b
=30	=30	=30	=30	=30
0r	0r	1f	0r	2.a
.	.	.	.	4b
.	.	2r	.	4cc
.	.	.	.	4a
.	.	[2f	.	[2dd
=31	=31	=31	=31	=31
0r	0r	2f]	0r	4dd]
.	.	.	.	4a
.	.	2e	.	1cc
.	.	1d	.	.
.	.	.	.	2b
=32	=32	=32	=32	=32
0r	0r	2c	0r	1cc
.	.	2f	.	.
.	.	1f	.	1r
=33	=33	=33	=33	=33
0r	0r	2f	0r	1dd
.	.	2f	.	.
.	.	1g	.	2dd
.	.	.	.	2dd
=34	=34	=34	=34	=34
0r	0r	2g	0r	1ee
.	.	1a	.	.
.	.	.	.	2.ff
.	.	[2d	.	.
.	.	.	.	4ee
=35	=35	=35	=35	=35
0r	0r	4d]	0r	4dd
.	.	4e	.	4cc
.	.	4f	.	2dd
.	.	4g	.	.
.	.	4f	.	2a
.	.	4e	.	.
.	.	4d	.	[2b-X
.	.	4c	.	.
=36	=36	=36	=36	=36
0r	0r	2d	0r	4b-]
.	.	.	.	4a
.	.	2c	.	1a
.	.	2d	.	.
.	.	2e	.	2g
=37	=37	=37	=37	=37
0r	0r	2c	0r	0a
.	.	2.d	.	.
.	.	4c	.	.
.	.	4d	.	.
.	.	4e	.	.
=38	=38	=38	=38	=38
0r	0r	4f	0r	1r
.	.	4g	.	.
.	.	2.a	.	.
.	.	.	.	1b-X
.	.	4g	.	.
.	.	[2g	.	.
=39	=39	=39	=39	=39
0r	0r	2g]	0r	2a
.	.	2f	.	2a
.	.	2.g	.	2.g
.	.	4f	.	4a
=40	=40	=40	=40	=40
0r	0r	4d	0r	4b
.	.	4e	.	4cc
.	.	2.f	.	1dd
.	.	4e	.	.
.	.	4e	.	[2cc
.	.	8dL	.	.
.	.	8cJ	.	.
=41	=41	=41	=41	=41
0r	0r	1d	0r	2cc]
.	.	.	.	2b
.	.	1c	.	2.cc
.	.	.	.	4dd
=42	=42	=42	=42	=42
0r	0r	1cc	0r	4ee
.	.	.	.	4ff
.	.	.	.	1gg
.	.	1b	.	.
.	.	.	.	2dd
=43	=43	=43	=43	=43
0r	0r	2g	0r	2ee
.	.	2.a	.	2.ff
.	.	4g	.	4ee
.	.	4f	.	4dd
.	.	4e	.	4cc
=44	=44	=44	=44	=44
0r	0r	2d	0r	4b
.	.	.	.	4a
.	.	1a	.	1cc
.	.	[2g	.	2b
=45	=45	=45	=45	=45
0r	0r	2g]	0r	1a
.	.	2f#i	.	.
.	.	1g	.	[1g
=46	=46	=46	=46	=46
0r	0r	2r	0r	1g]
.	.	2g	.	.
.	.	2f	.	1r
.	.	2d	.	.
=47	=47	=47	=47	=47
0r	0r	4e	0r	1gg
.	.	4d	.	.
.	.	4c	.	.
.	.	4B	.	.
.	.	2A	.	1ff
.	.	[2d	.	.
=48	=48	=48	=48	=48
0r	0r	4d]	0r	2dd
.	.	4B	.	.
.	.	4c	.	2.ee
.	.	4d	.	.
.	.	4e	.	.
.	.	4f	.	4dd
.	.	4g	.	4cc
.	.	4e	.	4b
=49	=49	=49	=49	=49
0r	0r	4f	0r	2a
.	.	4g	.	.
.	.	4a	.	2.ee
.	.	4f	.	.
.	.	4g	.	.
.	.	4f	.	4dd
.	.	4f	.	[2dd
.	.	8eL	.	.
.	.	8dJ	.	.
=50	=50	=50	=50	=50
0r	0r	1e	0r	2dd]
.	.	.	.	2cc#i
.	.	2d	.	1dd
.	.	2g	.	.
=51	=51	=51	=51	=51
0r	0r	2f	0r	2r
.	.	2e	.	2.gg
.	.	2.g	.	.
.	.	.	.	4ff
.	.	.	.	4dd
.	.	8fL	.	4ee
.	.	8eJ	.	.
=52	=52	=52	=52	=52
0r	0r	4d	0r	2.ff
.	.	4e	.	.
.	.	4f	.	.
.	.	4g	.	8eeL
.	.	.	.	8ddJ
.	.	4a	.	2ff
.	.	4b	.	.
.	.	4cc	.	[2ee
.	.	4dd	.	.
=53	=53	=53	=53	=53
0r	0r	4cc	0r	4ee]
.	.	4b	.	4dd
.	.	4a	.	4cc
.	.	4g	.	4b
.	.	4f	.	4a
.	.	4e	.	4g
.	.	4f	.	4a
.	.	4g	.	4b
=54	=54	=54	=54	=54
0r	0r	4a	0r	4cc
.	.	4f	.	4dd
.	.	4g	.	4ee
.	.	4a	.	4cc
.	.	4b-X	.	4dd
.	.	4a	.	4ee
.	.	4a	.	4ff
.	.	4g	.	4ee
=55	=55	=55	=55	=55
0r	0r	4b	0r	4gg
.	.	4a	.	4ff
.	.	4g	.	4ee
.	.	4f	.	4dd
.	.	4e	.	4cc
.	.	4d	.	4b
.	.	2f	.	2dd
=56	=56	=56	=56	=56
0r	0r	4e	0r	2dd
.	.	4d	.	.
.	.	2e	.	2cc#i
.	.	[1dl	.	[1ddl
=57	=57	=57	=57	=57
0r	0r	0d]	0r	0dd]
=58||	=58||	=58||	=58||	=58||
*M2/1	*M2/1	*M2/1	*M2/1	*M2/1
*met(C|)	*met(C|)	*met(C|)	*met(C|)	*met(C|)
!!section: Agnus Dei III
!!!OMD: Agnus Dei III
0r	0r	1d	1dd	1dd
.	.	2d	1ff	1dd
.	.	[2d	.	.
=59	=59	=59	=59	=59
0r	0r	4d]	1ff	2.a
.	.	4e	.	.
.	.	4f	.	.
.	.	4g	.	4b
.	.	2a	2ee	4cc
.	.	.	.	4dd
.	.	2g	[2gg	[2ee
=60	=60	=60	=60	=60
0r	0r	1b	4gg]	4ee]
.	.	.	4ff	4dd
.	.	.	4ff	1dd
.	.	.	8eeL	.
.	.	.	8ddJ	.
.	.	1a	1ee	.
.	.	.	.	2cc#i
=61	=61	=61	=61	=61
1D	1d	2r	2dd	1dd
.	.	2d	2a	.
2D	1d	1f	2b	1r
[2D	.	.	2a	.
=62	=62	=62	=62	=62
4D]	2.A	1f	1dd	0r
4E	.	.	.	.
4F	.	.	.	.
4G	4B	.	.	.
2A	4c	2e	2cc	.
.	4d	.	.	.
2G	[2e	[2g	[2b-X	.
=63	=63	=63	=63	=63
1B-X	4e]	4g]	2b-]	0r
.	4d	4f	.	.
.	1d	4f	2g	.
.	.	8eL	.	.
.	.	8dJ	.	.
1A	.	1e	1a	.
.	2c#i	.	.	.
=64	=64	=64	=64	=64
2.D	1d	1d	2r	1ff
.	.	.	2dd	.
4E	.	.	.	.
4F	1r	1a	2dd	2ff
4G	.	.	.	.
2A	.	.	2cc	2ee
=65	=65	=65	=65	=65
2D	0r	2f	2.b-X	1.dd
2.G	.	2g	.	.
.	.	.	4a	.
.	.	1d	2g	.
4A	.	.	.	.
4B	.	.	2g	4cc
4c	.	.	.	4b
=66	=66	=66	=66	=66
1d	0r	2r	2.f	2.a
.	.	2a	.	.
.	.	.	4g	4b
2r	.	2a	2a	2cc
2G	.	2g	2b	[2dd
=67	=67	=67	=67	=67
2.A	1r	2f	1cc	2dd]
.	.	2e	.	1cc
4E	.	.	.	.
2F	2r	2d	1dd	.
2G	2g	2d	.	2b
=68	=68	=68	=68	=68
1C	2g	2c	2.ee	1cc
.	2g	2.G	.	.
.	.	.	8ddL	.
.	.	.	8ccJ	.
1G	2.d	.	1b	2r
.	.	4A	.	.
.	.	4B	.	2dd
.	4e	4c	.	.
=69	=69	=69	=69	=69
2D	4f	2.d	1a	2dd
.	4e	.	.	.
2d	1f	.	.	2dd
.	.	4e	.	.
2d	.	4f	1dd	2.a
.	.	4d	.	.
2d	4e	[2a	.	.
.	4d	.	.	4b
=70	=70	=70	=70	=70
2A	2.a	4a]	0r	4cc
.	.	4A	.	4dd
2c	.	2A	.	1ee
.	4g	.	.	.
2d	2f	2a	.	.
2G	2g	2b-i	.	[2dd
=71	=71	=71	=71	=71
1A	1e	1a	1r	2dd]
.	.	.	.	2cc#i
2D	2.d	2.f	[1ff	1dd
[2d	.	.	.	.
.	4e	4g	.	.
=72	=72	=72	=72	=72
2d]	4f	2a	2ff]	0r
.	4d	.	.	.
2c	2.g	2e	2ee	.
2.B-X	.	1f	[1dd	.
.	4f	.	.	.
.	[2f	.	.	.
4A	.	.	.	.
=73	=73	=73	=73	=73
1G	2f]	1g	2dd]	0r
.	2e	.	4cc	.
.	.	.	4b	.
1F	1f	1c	2.a	.
.	.	.	4b	.
=74	=74	=74	=74	=74
2r	1.a	1.f	4cc	1.ff
.	.	.	4a	.
2D	.	.	2.dd	.
2D	.	.	.	.
.	.	.	4cc	.
2E	2g	2g	[2cc	2ee
=75	=75	=75	=75	=75
1F	2.f	1a	2cc]	1.dd
.	.	.	4b	.
.	4e	.	4a	.
1G	1d	1g	1b	.
.	.	.	.	4cc
.	.	.	.	4b
=76	=76	=76	=76	=76
2.F	1f	2r	1cc	2.a
.	.	1a	.	.
4G	.	.	.	4b
2A	2e	.	1r	2cc
[2B-i	[2d	2g	.	[2dd
=77	=77	=77	=77	=77
4B-]	4d]	2.f	1dd	2dd]
4A	4c	.	.	.
2F	2A	.	.	1cc
.	.	4e	.	.
1G	2B	1d	2dd	.
.	[2G	.	2dd	2b
=78	=78	=78	=78	=78
1C	2G]	2c	1ee	1cc
.	1c	2g	.	.
1F	.	1a	2.ff	1r
.	2A	.	.	.
.	.	.	4ee	.
=79	=79	=79	=79	=79
2G	2B	2g	2dd	1r
2.D	1A	2a	2dd	.
.	.	[1f	2a	1dd
4C	.	.	.	.
4D	[2d	.	[2b-X	.
4E	.	.	.	.
=80	=80	=80	=80	=80
1F	4d]	1f]	2b-]	2dd
.	4c	.	.	.
.	2A	.	1a	2dd
1G	1B	1e	.	1ee
.	.	.	2g	.
=81	=81	=81	=81	=81
2r	2r	1d	0a	2.ff
2.D	1d	.	.	.
.	.	.	.	4ee
.	.	[1f	.	2dd
4C	.	.	.	.
4D	[2A	.	.	2dd
4E	.	.	.	.
=82	=82	=82	=82	=82
2F	2A]	0f]	1dd	2a
2D	2.d	.	.	1b-X
1F	.	.	1dd	.
.	4c	.	.	.
.	2A	.	.	[2a
=83	=83	=83	=83	=83
1G	1B-X	2r	1dd	2a]
.	.	2d	.	2g
2r	[1A	4d	[1ff	[1a
.	.	4c	.	.
[2D	.	4d	.	.
.	.	4e	.	.
=84	=84	=84	=84	=84
4D]	1A]	4f	2ff]	0a_
4C	.	4e	.	.
4D	.	4f	4ee	.
4E	.	4g	4dd	.
4F	1r	2.a	2cc	.
4E	.	.	.	.
4F	.	.	[2dd	.
4G	.	8gL	.	.
.	.	8fJ	.	.
=85	=85	=85	=85	=85
1A	2r	4e	2dd]	1a]
.	.	4d	.	.
.	2A	2e	2cc#i	.
1r	2B	2.d	1dd	1r
.	2G	.	.	.
.	.	4e	.	.
=86	=86	=86	=86	=86
1r	2.d	4f	2r	1b-X
.	.	4d	.	.
.	.	1g	2dd	.
.	4B	.	.	.
2r	2c	.	2ee	2a
2D	2d	2f	2dd	2a
=87	=87	=87	=87	=87
2E	1G	2.g	2b	2.g
2C	.	.	2cc	.
.	.	4f	.	4a
[1G	2r	2e	[1g	4b
.	.	.	.	4cc
.	[2BnXi	2d	.	[2dd
=88	=88	=88	=88	=88
2G]	2B]	2e	1g]	2dd]
2E	2G	2c	.	1cc
2F	2A	1d	2r	.
2G	2B	.	2dd	2b
=89	=89	=89	=89	=89
0C	2.G	2c	2ee	2.cc
.	.	1e	2.gg	.
.	2.c	.	.	4dd
.	.	.	.	4ee
.	.	.	4ff	4ff
.	4d	2c	4ee	[2gg
.	4e	.	4dd	.
=90	=90	=90	=90	=90
2r	2g	2c	2cc	2gg]
1G	2G	2d	4b	2dd
.	.	.	4a	.
.	2r	2B	2g	2ee
2F	[2A	2A	[2dd	[2ff
=91	=91	=91	=91	=91
1D	2A]	1d	4dd]	4ff]
.	.	.	4cc	4ee
.	2.B	.	4b	4dd
.	.	.	4a	4cc
2E	.	1r	2g	4b
.	8cL	.	.	4a
.	8dJ	.	.	.
2C	2e	.	[2a	[2cc
=92	=92	=92	=92	=92
2F	2A	0r	4a]	2cc]
.	.	.	4g	.
2G	4B	.	1gg	2b
.	4c	.	.	.
1D	1d	.	.	1a
.	.	.	2ff#i	.
=93	=93	=93	=93	=93
2r	1G	0r	0gg	0g
2.G	.	.	.	.
.	1g	.	.	.
4A	.	.	.	.
4B	.	.	.	.
4c	.	.	.	.
=94	=94	=94	=94	=94
2d	1f	0r	0r	0r
2A	.	.	.	.
2B	2d	.	.	.
[2c	[2e	.	.	.
=95	=95	=95	=95	=95
4c]	4e]	0r	0r	0r
4B	4d	.	.	.
4A	4c	.	.	.
4G	4B	.	.	.
4F	2A	.	.	.
4E	.	.	.	.
[2G	[2e	.	.	.
=96	=96	=96	=96	=96
2G]	4e]	2r	1r	0r
.	4d	.	.	.
2F	1d	2d	.	.
1E	.	2g	1gg	.
.	2c#i	2e	.	.
=97	=97	=97	=97	=97
1D	1d	2a	1ff	0r
.	.	2d	.	.
1r	2G	1g	2dd	.
.	[2c	.	[2ee	.
=98	=98	=98	=98	=98
1r	2c]	1e	4ee]	1gg
.	.	.	4dd	.
.	2c	.	4cc	.
.	.	.	4b	.
2r	1d	1f	2a	1ff
2D	.	.	[2dd	.
=99	=99	=99	=99	=99
2G	2B	1g	2dd]	2dd
2E	2.c	.	2.cc	2.ee
[1A	.	1e	.	.
.	4d	.	4b	4dd
.	2e	.	4a	4cc
.	.	.	4g	4b
=100	=100	=100	=100	=100
2A]	2c	1r	4f	2a
.	.	.	4e	.
2G	2B	.	1g	1ee
2E	2c	2r	.	.
2F	2A	2d	2f	[2dd
=101	=101	=101	=101	=101
2G	2B	2g	1e	2dd]
2A	1A	2e	.	2cc#i
[1D	.	1a	2d	1dd
.	2A	.	[2a	.
=102	=102	=102	=102	=102
1D]	2d	2r	2a]	1r
.	2B	2d	2dd	.
1r	2e	2g	2b	1gg
.	2c	2e	2ee	.
=103	=103	=103	=103	=103
1D	2d	2a	2a	1ff
.	2A	1d	2dd	.
2G	1B	.	1b	2dd
2E	.	2g	.	[2ee
=104	=104	=104	=104	=104
1.A	2A	2e	2.cc	4ee]
.	.	.	.	4dd
.	1c	2.a	.	4cc
.	.	.	4dd	4b
.	.	.	4ee	2a
.	.	4g	4ff	.
2G	[2B	4e	[2gg	[2ee
.	.	4f	.	.
=105	=105	=105	=105	=105
2E	2B]	2g	4gg]	2ee]
.	.	.	8ffL	.
.	.	.	8ggJ	.
2F	2A	2a	4ff	1dd
.	.	.	8eeL	.
.	.	.	8ddJ	.
2G	2B	2g	1ee	.
2A	[2A	2e	.	2cc#i
=106	=106	=106	=106	=106
1D	2A]	1f#X	2dd	[0ddl
.	2.d	.	2a	.
2.G	.	2g	2b-X	.
.	4c	.	.	.
.	4B	[2b-X	[2g	.
4G	4A	.	.	.
=107	=107	=107	=107	=107
2G	2G	2b-]	2g]	0dd_
2F	2.d	2a	2a	.
1G	.	1g	1b	.
.	4G	.	.	.
.	4B	.	.	.
.	4c	.	.	.
=108	=108	=108	=108	=108
0Dl	0dl	0fl	0al	0dd]
==	==	==	==	==
*-	*-	*-	*-	*-
!!!system-decoration: s1,s2,s3,s4,s5
!!!RDF**kern: i = editorial accidental
!!!RDF**kern: l = terminal long
!!!ENC: Max Blistain
!!!END: 2025/12/15
!!!EED: Benjamin Ory
!!!EEV: 2026/02/12
!!!YEC: Copyright 2026 Benjamin Ory, All Rights Reserved
!!!ONB: Translated from MusicXML on 2026/02/12
